X:025 
T:Broken Lantern, The
S:Larry Redican/Jack Coen
F:file ID: cre.5/025broken
B:CRE5.045 (Lóchrann Briste)
Q:160
M:6/8
R:jig
K:D
F|Add dcd|Bee ede|fdB AFA|BAF DFG|
Add dcd|Bee ede|fdB ABc|dfe d2:|
a|fdA dfa|fga b2a|gea fdA|ecA A2a|
fdA dfa|fga b2a|gea fdA|ecA d2:|

